assets/illustrations/no_connection_4.svg

<svg fill="none" height="280" viewBox="0 0 280 280" width="280" xmlns="http://www.w3.org/2000/svg">
    <path
        d="m226.018 106.097s-28.928 24.384 1.873 78.858c27.354 48.378-38.014 67.466-65.743 61.252-35.921-8.05-55.263-54.874-83.3463-40.871-28.0829 14.003-53.4406-53.17-12.4968-76.662 50.9331-29.2232 19.376-47.6966 24.5458-69.9077 3.71-15.941 50.3353-39.5908 74.2113-10.7348 20.092 24.2817 30.557 16.0251 40.166 13.0831 13.86-4.2434 43.085 20.2971 20.79 44.9824z"
        fill="#dee9ff" />
    <path
        d="m196.757 70.3357-62.421-10.2285c-4.578-.7501-8.897 2.353-9.648 6.9311l-21.59 131.7577c-.75 4.578 2.353 8.898 6.931 9.648l62.421 10.228c4.578.75 8.897-2.353 9.647-6.931l21.591-131.7576c.75-4.5781-2.353-8.8976-6.931-9.6477z"
        fill="#0e84e5" />
    <g fill="#699cff">
        <path
            d="m194.704 74.0491-59.608-9.7676c-3.052-.5001-5.932 1.5687-6.432 4.6208l-21.203 129.3957c-.5 3.053 1.568 5.932 4.621 6.432l59.607 9.768c3.052.5 5.932-1.569 6.432-4.621l21.203-129.3961c.5-3.0521-1.568-5.9317-4.62-6.4318z" />
        <path
            d="m76.9556 170.342c-.2439.848-.2311 1.748.0368 2.588s.7789 1.582 1.4684 2.132c.6894.549 1.5264.882 2.405.956s1.7594-.114 2.5311-.541c.7716-.427 1.3994-1.072 1.804-1.856.4046-.783.5677-1.669.4689-2.545s-.4553-1.704-1.0242-2.377c-.569-.674-1.3249-1.164-2.1722-1.408-1.1362-.327-2.3558-.189-3.3906.383-1.0347.572-1.7999 1.532-2.1272 2.668z" />
        <path
            d="m86.9298 161.043c-.0112.184-.0436.367-.0966.544-.0949.33-.2541.638-.4685.906-.2143.268-.4797.491-.7806.656-.2992.167-.6285.272-.9689.31-.3403.038-.6848.008-1.0132-.089-1.0773-.311-2.2053-.406-3.3194-.28-1.1141.125-2.1925.47-3.1734 1.012-.981.543-1.8453 1.274-2.5434 2.152-.6981.877-1.2164 1.883-1.5252 2.961-.095.33-.2541.637-.4679.905-.2138.267-.4783.49-.7784.656-.606.334-1.32.414-1.9849.222-.665-.192-1.2264-.64-1.5608-1.246s-.4144-1.32-.2223-1.985c.4944-1.737 1.3291-3.359 2.4556-4.771s2.5224-2.586 4.1066-3.454c1.1873-.659 2.4645-1.141 3.791-1.432z" />
        <path
            d="m67.1201 154.259 6.221 2.133c-.1332.058-.2628.125-.3883.198-1.9722 1.082-3.7101 2.545-5.1128 4.304-1.4028 1.758-2.4426 3.778-3.0592 5.941-.0929.331-.2503.64-.4632.91s-.477.495-.7772.662c-.3002.168-.6305.274-.972.313-.3414.039-.6872.011-1.0175-.084s-.6386-.255-.9071-.469c-.2685-.215-.4918-.48-.6573-.782-.1654-.301-.2697-.632-.3067-.974-.0371-.341-.0062-.687.0909-1.017 1.2437-4.38 3.8106-8.269 7.3494-11.135z" />
        <path
            d="m89.2057 153.331c-.1928.664-.6402 1.225-1.2447 1.56-.6046.336-1.3172.418-1.9825.231-1.2067-.351-2.4483-.568-3.7024-.647l-9.9382-3.398c4.7576-2.085 10.0972-2.431 15.0843-.977.6643.193 1.2251.641 1.5594 1.247.3342.606.4148 1.319.2241 1.984z" />
        <path
            d="m57.9717 151.133 5.4508 1.86c-3.2828 3.137-5.6694 7.092-6.9134 11.459-.0948.33-.254.638-.4683.906-.2144.268-.4796.491-.7806.656-.2979.168-.6264.275-.966.314-.3397.039-.6838.01-1.0121-.086-.3295-.094-.6373-.252-.9057-.465s-.4921-.477-.6584-.777c-.1662-.299-.2717-.629-.3105-.969-.0387-.341-.0099-.686.0847-1.015 1.251-4.393 3.4644-8.452 6.4795-11.883z" />
        <path
            d="m91.5894 145.06c-.1932.664-.6417 1.224-1.2474 1.559-.6056.334-1.319.414-1.984.224-3.2468-.944-6.6484-1.234-10.008-.854-3.3597.379-6.6108 1.421-9.5651 3.066-.2981.167-.588.33-.8666.515l-6.1123-2.096c3.8732-3.116 8.4386-5.255 13.3114-6.238 4.8729-.982 9.9106-.779 14.6886.592.6644.193 1.2251.642 1.5593 1.247.3343.606.4149 1.32.2241 1.985z" />
        <path
            d="m51.9811 151.492h-.0001c-.4201 1.227.2344 2.563 1.462 2.983l33.708 11.536c1.2276.42 2.5632-.234 2.9833-1.462h.0001c.4201-1.227-.2345-2.563-1.462-2.983l-33.708-11.536c-1.2276-.42-2.5632.234-2.9833 1.462z" />
    </g>
    <path
        d="m230.227 60.0536c-4.534-1.8944-7.739-.0771-8.497 1.7367-.547 1.3102.308 2.3778 1.215 2.7568 1.814.7577 2.156-2.1375 5.581-.7062 1.68.7016 2.715 2.002 2.069 3.5472-.758 1.814-3.074 2.0695-4.575 2.5469-1.325.4329-3.177 1.2769-4.384 4.1657-.729 1.7466-.47 2.4469.907 3.0223 1.646.6875 2.29.0889 2.557-.5494.73-1.7467 1.185-2.7405 3.635-3.413 1.202-.3265 5.011-1.4181 6.33-4.5755 1.32-3.1574-.539-6.7353-4.838-8.5315z"
        fill="#0e84e5" />
    <path
        d="m221.608 79.4548c-.684-.2767-1.45-.2725-2.131.0117s-1.222.8255-1.507 1.5064c-.284.6809-.289 1.4465-.012 2.1308.276.6842.811 1.2319 1.489 1.5241.685.2819 1.454.2811 2.138-.0022.685-.2833 1.229-.826 1.515-1.5095.285-.6836.289-1.4524.009-2.1384-.279-.6861-.819-1.2336-1.501-1.5229z"
        fill="#0e84e5" />
    <path
        d="m144.943 120.276c.409-2.519-.318-4.733-1.624-4.945s-2.697 1.658-3.106 4.177.318 4.733 1.624 4.945 2.697-1.658 3.106-4.177z"
        fill="#fff" />
    <path
        d="m172.179 124.747c.413-2.544-.31-4.778-1.617-4.991-1.306-.212-2.7 1.679-3.113 4.222-.413 2.544.311 4.779 1.617 4.991s2.7-1.678 3.113-4.222z"
        fill="#fff" />
    <path
        d="m161.061 146.677c-.095 0-.189-.02-.276-.057s-.166-.092-.231-.161l-.985-1.037c-1.58-1.659-3.662-2.753-5.925-3.114-2.262-.36-4.581.032-6.599 1.118l-1.258.68c-.081.043-.17.071-.261.08-.092.01-.184.001-.272-.025-.088-.027-.17-.07-.242-.128-.071-.058-.13-.13-.174-.211-.044-.08-.071-.169-.08-.261-.01-.091-.001-.184.025-.272.027-.088.07-.17.128-.241s.13-.131.21-.174l1.259-.68c2.288-1.231 4.918-1.677 7.484-1.268 2.567.409 4.927 1.65 6.72 3.531l.985 1.037c.094.1.157.224.181.359s.008.274-.046.4c-.054.125-.143.233-.257.308-.115.075-.249.115-.386.115z"
        fill="#fff" />
</svg>

<svg fill="none" height="280" viewBox="0 0 280 280" width="280" xmlns="http://www.w3.org/2000/svg">
    <path
        d="M226.018 106.097C226.018 106.097 197.09 130.481 227.891 184.955C255.245 233.333 189.877 252.421 162.148 246.207C126.227 238.157 106.885 191.333 78.8017 205.336C50.7188 219.339 25.3611 152.166 66.3049 128.674C117.238 99.4508 85.6809 80.9774 90.8507 58.7663C94.5607 42.8253 141.186 19.1755 165.062 48.0315C185.154 72.3132 195.619 64.0566 205.228 61.1146C219.088 56.8712 248.313 81.4117 226.018 106.097Z"
        fill="#DEE9FF" />
    <path
        d="M196.757 70.3357L134.336 60.1072C129.758 59.3571 125.439 62.4602 124.688 67.0383L103.098 198.796C102.348 203.374 105.451 207.694 110.029 208.444L172.45 218.672C177.028 219.422 181.347 216.319 182.097 211.741L203.688 79.9834C204.438 75.4053 201.335 71.0858 196.757 70.3357Z"
        fill="#0E84E5" />
    <path
        d="M194.704 74.0491L135.096 64.2815C132.044 63.7814 129.164 65.8502 128.664 68.9023L107.461 198.298C106.961 201.351 109.029 204.23 112.082 204.73L171.689 214.498C174.741 214.998 177.621 212.929 178.121 209.877L199.324 80.4809C199.824 77.4288 197.756 74.5492 194.704 74.0491Z"
        fill="#699CFF" />
    <path
        d="M76.9556 170.342C76.7117 171.19 76.7245 172.09 76.9924 172.93C77.2603 173.77 77.7713 174.512 78.4608 175.062C79.1502 175.611 79.9872 175.944 80.8658 176.018C81.7444 176.092 82.6252 175.904 83.3969 175.477C84.1685 175.05 84.7963 174.405 85.2009 173.621C85.6055 172.838 85.7686 171.952 85.6698 171.076C85.571 170.2 85.2145 169.372 84.6456 168.699C84.0766 168.025 83.3207 167.535 82.4734 167.291C81.3372 166.964 80.1176 167.102 79.0828 167.674C78.0481 168.246 77.2829 169.206 76.9556 170.342Z"
        fill="#699CFF" />
    <path
        d="M86.9298 161.043C86.9186 161.227 86.8862 161.41 86.8332 161.587C86.7383 161.917 86.5791 162.225 86.3647 162.493C86.1504 162.761 85.885 162.984 85.5841 163.149C85.2849 163.316 84.9556 163.421 84.6152 163.459C84.2749 163.497 83.9304 163.467 83.602 163.37C82.5247 163.059 81.3967 162.964 80.2826 163.09C79.1685 163.215 78.0901 163.56 77.1092 164.102C76.1282 164.645 75.2639 165.376 74.5658 166.254C73.8677 167.131 73.3494 168.137 73.0406 169.215C72.9456 169.545 72.7865 169.852 72.5727 170.12C72.3589 170.387 72.0944 170.61 71.7943 170.776C71.1883 171.11 70.4743 171.19 69.8094 170.998C69.1444 170.806 68.583 170.358 68.2486 169.752C67.9142 169.146 67.8342 168.432 68.0263 167.767C68.5207 166.03 69.3554 164.408 70.4819 162.996C71.6084 161.584 73.0043 160.41 74.5885 159.542C75.7758 158.883 77.053 158.401 78.3795 158.11L86.9298 161.043Z"
        fill="#699CFF" />
    <path
        d="M67.1201 154.259L73.3411 156.392C73.2079 156.45 73.0783 156.517 72.9528 156.59C70.9806 157.672 69.2427 159.135 67.84 160.894C66.4372 162.652 65.3974 164.672 64.7808 166.835C64.6879 167.166 64.5305 167.475 64.3176 167.745C64.1047 168.015 63.8406 168.24 63.5404 168.407C63.2402 168.575 62.9099 168.681 62.5684 168.72C62.227 168.759 61.8812 168.731 61.5509 168.636C61.2206 168.541 60.9123 168.381 60.6438 168.167C60.3753 167.952 60.152 167.687 59.9865 167.385C59.8211 167.084 59.7168 166.753 59.6798 166.411C59.6427 166.07 59.6736 165.724 59.7707 165.394C61.0144 161.014 63.5813 157.125 67.1201 154.259Z"
        fill="#699CFF" />
    <path
        d="M89.2057 153.331C89.0129 153.995 88.5655 154.556 87.961 154.891C87.3564 155.227 86.6438 155.309 85.9785 155.122C84.7718 154.771 83.5302 154.554 82.2761 154.475L72.3379 151.077C77.0955 148.992 82.4351 148.646 87.4222 150.1C88.0865 150.293 88.6473 150.741 88.9816 151.347C89.3158 151.953 89.3964 152.666 89.2057 153.331Z"
        fill="#699CFF" />
    <path
        d="M57.9717 151.133L63.4225 152.993C60.1397 156.13 57.7531 160.085 56.5091 164.452C56.4143 164.782 56.2551 165.09 56.0408 165.358C55.8264 165.626 55.5612 165.849 55.2602 166.014C54.9623 166.182 54.6338 166.289 54.2942 166.328C53.9545 166.367 53.6104 166.338 53.2821 166.242C52.9526 166.148 52.6448 165.99 52.3764 165.777C52.108 165.564 51.8843 165.3 51.718 165C51.5518 164.701 51.4463 164.371 51.4075 164.031C51.3688 163.69 51.3976 163.345 51.4922 163.016C52.7432 158.623 54.9566 154.564 57.9717 151.133Z"
        fill="#699CFF" />
    <path
        d="M91.5894 145.06C91.3962 145.724 90.9477 146.284 90.342 146.619C89.7364 146.953 89.023 147.033 88.358 146.843C85.1112 145.899 81.7096 145.609 78.35 145.989C74.9903 146.368 71.7392 147.41 68.7849 149.055C68.4868 149.222 68.1969 149.385 67.9183 149.57L61.806 147.474C65.6792 144.358 70.2446 142.219 75.1174 141.236C79.9903 140.254 85.028 140.457 89.806 141.828C90.4704 142.021 91.0311 142.47 91.3653 143.075C91.6996 143.681 91.7802 144.395 91.5894 145.06Z"
        fill="#699CFF" />
    <path
        d="M51.9811 151.492L51.981 151.492C51.5609 152.719 52.2154 154.055 53.443 154.475L87.151 166.011C88.3786 166.431 89.7142 165.777 90.1343 164.549L90.1344 164.549C90.5545 163.322 89.8999 161.986 88.6724 161.566L54.9644 150.03C53.7368 149.61 52.4012 150.264 51.9811 151.492Z"
        fill="#699CFF" />
    <path
        d="M230.227 60.0536C225.693 58.1592 222.488 59.9765 221.73 61.7903C221.183 63.1005 222.038 64.1681 222.945 64.5471C224.759 65.3048 225.101 62.4096 228.526 63.8409C230.206 64.5425 231.241 65.8429 230.595 67.3881C229.837 69.2021 227.521 69.4576 226.02 69.935C224.695 70.3679 222.843 71.2119 221.636 74.1007C220.907 75.8473 221.166 76.5476 222.543 77.123C224.189 77.8105 224.833 77.2119 225.1 76.5736C225.83 74.8269 226.285 73.8331 228.735 73.1606C229.937 72.8341 233.746 71.7425 235.065 68.5851C236.385 65.4277 234.526 61.8498 230.227 60.0536Z"
        fill="#0E84E5" />
    <path
        d="M221.608 79.4548C220.924 79.1781 220.158 79.1823 219.477 79.4665C218.796 79.7507 218.255 80.292 217.97 80.9729C217.686 81.6538 217.681 82.4194 217.958 83.1037C218.234 83.7879 218.769 84.3356 219.447 84.6278C220.132 84.9097 220.901 84.9089 221.585 84.6256C222.27 84.3423 222.814 83.7996 223.1 83.1161C223.385 82.4325 223.389 81.6637 223.109 80.9777C222.83 80.2916 222.29 79.7441 221.608 79.4548Z"
        fill="#0E84E5" />
    <path
        d="M144.943 120.276C145.352 117.757 144.625 115.543 143.319 115.331C142.013 115.119 140.622 116.989 140.213 119.508C139.804 122.027 140.531 124.241 141.837 124.453C143.143 124.665 144.534 122.795 144.943 120.276Z"
        fill="white" />
    <path
        d="M172.179 124.747C172.592 122.203 171.869 119.969 170.562 119.756C169.256 119.544 167.862 121.435 167.449 123.978C167.036 126.522 167.76 128.757 169.066 128.969C170.372 129.181 171.766 127.291 172.179 124.747Z"
        fill="white" />
    <path
        d="M161.061 146.677C160.966 146.677 160.872 146.657 160.785 146.62C160.698 146.583 160.619 146.528 160.554 146.459L159.569 145.422C157.989 143.763 155.907 142.669 153.644 142.308C151.382 141.948 149.063 142.34 147.045 143.426L145.787 144.106C145.706 144.149 145.617 144.177 145.526 144.186C145.434 144.196 145.342 144.187 145.254 144.161C145.166 144.134 145.084 144.091 145.012 144.033C144.941 143.975 144.882 143.903 144.838 143.822C144.794 143.742 144.767 143.653 144.758 143.561C144.748 143.47 144.757 143.377 144.783 143.289C144.81 143.201 144.853 143.119 144.911 143.048C144.969 142.977 145.041 142.917 145.121 142.874L146.38 142.194C148.668 140.963 151.298 140.517 153.864 140.926C156.431 141.335 158.791 142.576 160.584 144.457L161.569 145.494C161.663 145.594 161.726 145.718 161.75 145.853C161.774 145.988 161.758 146.127 161.704 146.253C161.65 146.378 161.561 146.486 161.447 146.561C161.332 146.636 161.198 146.676 161.061 146.676V146.677Z"
        fill="white" />
</svg>
